right-arrow.svg

<svg fill="none" height="10" viewBox="0 0 6 10" width="6" xmlns="http://www.w3.org/2000/svg"><path clip-rule="evenodd" d="m.442209.817209c.256279-.256279.671801-.256279.928081 0l3.71872 3.718751c.25629.25628.25629.6718 0 .92808l-3.71872 3.71872c-.25628.25629-.671802.25629-.928081 0s-.256279-.67174 0-.92803l3.254711-3.25473-3.254711-3.25471c-.256279-.25628-.256279-.6718 0-.928081z" fill="#b9d2e8" fill-rule="evenodd"/></svg>

<svg width="6" height="10" viewBox="0 0 6 10" fill="none" xmlns="http://www.w3.org/2000/svg">
<path fill-rule="evenodd" clip-rule="evenodd" d="M0.442209 0.817209C0.698488 0.56093 1.11401 0.56093 1.37029 0.817209L5.08901 4.53596C5.3453 4.79224 5.3453 5.20776 5.08901 5.46404L1.37029 9.18276C1.11401 9.43905 0.698488 9.43905 0.442209 9.18276C0.18593 8.92647 0.18593 8.51102 0.442209 8.25473L3.69692 5L0.442209 1.74529C0.18593 1.48901 0.18593 1.07349 0.442209 0.817209Z" fill="#B9D2E8"/>
</svg>
